X:40
T: Entfuehrte Graserin
N: D0042
O: Europa, Mitteleuropa, Lothringen, Rechicourt ( Kr. Saarburg )
N: Verzierungen; Inzipit = Transposition zum Lied
R: Ballade
M: 2/4
L: 1/16
K: F
F2 | F4F4 | c3cc2d2 | c4B2A2 | G8- | G4z2
c2 | c2B2A2G2 | F4G4 | F2E2D4 | C8- | C4z2
C2 | F4F4 | G4c4 | A4G4 | A8 | A4G4 | F8- | F4z2

@@@ Tune index: 2562
